packages/kaspersky-hexa-ui-icons/src/iconsSVGs/16/EndpointK8S.svg

<svg width="16" height="16" viewBox="0 0 16 16" fill="none" xmlns="http://www.w3.org/2000/svg">
<path fill-rule="evenodd" clip-rule="evenodd" d="M5.34992 3.5001C5.34992 2.58883 6.08865 1.8501 6.99992 1.8501H8.99992C9.91119 1.8501 10.6499 2.58883 10.6499 3.5001V5.5001C10.6499 5.90639 10.5031 6.27839 10.2595 6.56591L11.9016 9.8501H12.4369C13.1272 9.8501 13.6869 10.4097 13.6869 11.1001V12.9001C13.6869 13.5905 13.1272 14.1501 12.4369 14.1501H10.6369C9.9465 14.1501 9.38686 13.5905 9.38686 12.9001V11.1001C9.38686 10.4716 9.85072 9.95141 10.4548 9.86326L9.0968 7.1473C9.06474 7.14916 9.03244 7.1501 8.99992 7.1501H6.99992C6.9674 7.1501 6.9351 7.14916 6.90304 7.1473L5.54506 9.86326C6.14912 9.95141 6.61299 10.4716 6.61299 11.1001V12.9001C6.61299 13.5905 6.05334 14.1501 5.36299 14.1501H3.56299C2.87263 14.1501 2.31299 13.5905 2.31299 12.9001V11.1001C2.31299 10.4097 2.87263 9.8501 3.56299 9.8501H4.0982L5.74029 6.56591C5.49677 6.27839 5.34992 5.90639 5.34992 5.5001V3.5001ZM4.48582 11.1501H3.61299V12.8501H5.31299V11.1501H4.51302C4.50397 11.1503 4.4949 11.1503 4.48582 11.1501ZM11.4987 11.1502C11.4948 11.1502 11.4908 11.1502 11.4868 11.1501H10.6869V12.8501H12.3869V11.1501H11.514C11.5089 11.1502 11.5038 11.1503 11.4987 11.1502ZM6.99992 3.1501C6.80662 3.1501 6.64992 3.3068 6.64992 3.5001V5.5001C6.64992 5.6934 6.80662 5.8501 6.99992 5.8501H8.99992C9.19322 5.8501 9.34992 5.6934 9.34992 5.5001V3.5001C9.34992 3.3068 9.19322 3.1501 8.99992 3.1501H6.99992Z" fill="black"/>
</svg>

<svg xmlns="http://www.w3.org/2000/svg" width="16" height="16" fill="none" viewBox="0 0 16 16"><path fill="#000" fill-rule="evenodd" d="M5.35 3.5c0-.9113.7388-1.65 1.65-1.65h2c.9113 0 1.65.7387 1.65 1.65v2c0 .4063-.1468.7783-.3903 1.0658L11.9018 9.85h.5352c.6903 0 1.25.5596 1.25 1.25v1.8c0 .6903-.5597 1.25-1.25 1.25h-1.8c-.6904 0-1.25-.5597-1.25-1.25v-1.8c0-.6285.4638-1.1487 1.0679-1.2369l-1.358-2.716A1.7 1.7 0 0 1 9 7.15H7q-.0488 0-.0968-.0028l-1.358 2.716c.604.088 1.068.6083 1.068 1.2368v1.8c0 .6903-.5597 1.25-1.25 1.25h-1.8c-.6905 0-1.25-.5597-1.25-1.25v-1.8c0-.6904.5595-1.25 1.25-1.25h.5351l1.6421-3.2842A1.644 1.644 0 0 1 5.35 5.5zm-.864 7.65h-.873v1.7h1.7v-1.7h-.8272m7.0129.0001-.012-.0001h-.7999v1.7h1.7v-1.7h-.8729zM7 3.15a.35.35 0 0 0-.35.35v2a.35.35 0 0 0 .35.35h2a.35.35 0 0 0 .35-.35v-2A.35.35 0 0 0 9 3.15z"/></svg>
